!! 00000] TT[00
!! NN
!!!OTL: Tian xin shun
!!!ARE: Asia, China, Shanxi Yanchang
!! Ethnic Group: Han
!! I, 40, 1)
!!!SCT: C0004
!!!YEM: Copyright 1995, estate of Helmut Schaffrath.
**kern
*ICvox
*Ivox
*M2/4
*k[f#]
*G:
{4dd
4a
=1
8dd
8dd
4a
=2
8dd
8a
4dd
=3
8g
8e
4d}
=4
{8dd
8dd
8gg
8gg
=5
8dd
8g
8a
8b
=6
8a
8e
8g
8e
=7
2d}
==
!!!AGN: Xiaodiao. Geming lishi minge
!! Neues Volkslied; sehr bekannt
!!!ONB: ESAC (Essen Associative Code) Database: CHINA
!!!AMT: simple duple
!!!AIN: vox
!!!EED: Helmut Schaffrath
!!!EEV: 1.0
*-
